X: 378
T:Farewell to Connaught
R:reel
S:Session Galway 1992
D:Dolores Keane &amp; John Faulkner: Farewell to Erin
Z:id:hn-reel-431
M:C|
K:Dmix
D2 (3FED AGAB|cBcd cAG2|Add^c d2cd|ed^cd ed~d2|
D2 (3FED AGAB|cBcd c2AG|ABAG EGAB|cAGE ED~D2:|
|:eggf g2ed|cded cA~A2|eaag ~a3g|eaag edcd|
eggf g2ed|cded cAAG|ABAG EGAB|cAGE ED~D2:|

